X:1
T:The Highlandman
R:Highland
S:Mairead Ni Mhaonaigh & Frankie Kennedy, "Altan"
Z:Philippe Varlet  irtrad-l 2001-12-24
N:Irish variant of Scottish tune "The Highlandman Who Kissed His Mother/Grannie"
M:4/4
L:1/8
Q:180
K:D
A2 A/2A/2A B/2c/2d ec | ABce dBGB | A2 A/2A/2A B/2c/2d eg | af{a}ge dBGB:||
K:G
cg~g2 af{a}ge | ce{a}ge dBGB | cg~g2 afgb | af{a}ge dBGB :||
